X: 29671
T: Norwich
R: reel
M: 4/4
K: Fmajor
"F"F3B Accf|afef cAFA|"Gm"G3A BABd|"C"gfed cBAG|
"F"F3B Accf|afef cAFA|"Gm"G2 GB "F"Acfa|1 "C"gece "F"f4:|2 "C"gece "F"f2fg||
"F"afef cfef|afef cfef|"Gm"dgg^f g2ba|"C"gfed c2fg|
"F"afef cfef|afef cfef|"Bb"dbca "F"BgAf|"C"ecde "F"f2fg|
"F"afef cfef|afef cfef|"Gm"dgg^f g2ba|"C"gfed cBAG|
"F"F2FB Accf|afef cAFA|"Gm"G2GB "F"Acfa|"C"gece "F"f4||

